src/assets/social_sharing_icons/linkedin_icon.svg

<svg fill="none" height="41" viewBox="0 0 40 41" width="40" xmlns="http://www.w3.org/2000/svg" xmlns:xlink="http://www.w3.org/1999/xlink"><clipPath id="a"><path d="m0 .43457h40v40h-40z"/></clipPath><g clip-path="url(#a)"><path d="m20 40.4341c11.0457 0 20-8.9543 20-20 0-11.04571-8.9543-20.000018-20-20.000018-11.04569 0-20 8.954308-20 20.000018 0 11.0457 8.95431 20 20 20z" fill="#007ab9"/><path d="m31 21.0825v7.3521h-4.2876v-6.8594c0-1.7223-.619-2.8984-2.1714-2.8984-1.1847 0-1.8885.7918-2.1993 1.5586-.1129.274-.142.6545-.142 1.0388v7.1601h-4.2879s.0576-11.6175 0-12.82h4.2882v1.8167c-.0086.0143-.0207.0283-.0284.0419h.0284v-.0419c.5698-.8717 1.586-2.1178 3.8643-2.1178 2.8208 0 4.9357 1.8323 4.9357 5.7693zm-17.5737-11.64793c-1.4667 0-2.4263.95713-2.4263 2.21473 0 1.2308.9318 2.2156 2.37 2.2156h.0278c1.4955 0 2.4254-.9848 2.4254-2.2156-.0285-1.2576-.9299-2.21473-2.3969-2.21473zm-2.1715 19.00003h4.2864v-12.8203h-4.2864z" fill="#f1f2f2"/></g></svg>

<svg width="40" height="41" viewBox="0 0 40 41" fill="none" xmlns="http://www.w3.org/2000/svg">
<g clip-path="url(#clip0_3790_4039)">
<path d="M20 40.4341C31.0457 40.4341 40 31.4798 40 20.4341C40 9.38839 31.0457 0.434082 20 0.434082C8.95431 0.434082 0 9.38839 0 20.4341C0 31.4798 8.95431 40.4341 20 40.4341Z" fill="#007AB9"/>
<path d="M31 21.0825V28.4346H26.7124V21.5752C26.7124 19.8529 26.0934 18.6768 24.541 18.6768C23.3563 18.6768 22.6525 19.4686 22.3417 20.2354C22.2288 20.5094 22.1997 20.8899 22.1997 21.2742V28.4343H17.9118C17.9118 28.4343 17.9694 16.8168 17.9118 15.6143H22.2V17.431C22.1914 17.4453 22.1793 17.4593 22.1716 17.4729H22.2V17.431C22.7698 16.5593 23.786 15.3132 26.0643 15.3132C28.8851 15.3132 31 17.1455 31 21.0825ZM13.4263 9.43457C11.9596 9.43457 11 10.3917 11 11.6493C11 12.8801 11.9318 13.8649 13.37 13.8649H13.3978C14.8933 13.8649 15.8232 12.8801 15.8232 11.6493C15.7947 10.3917 14.8933 9.43457 13.4263 9.43457ZM11.2548 28.4346H15.5412V15.6143H11.2548V28.4346Z" fill="#F1F2F2"/>
</g>
<defs>
<clipPath id="clip0_3790_4039">
<rect width="40" height="40" fill="white" transform="translate(0 0.43457)"/>
</clipPath>
</defs>
</svg>
